Hatter-kde-dark/actions/16/send_signal.svg

<?xml version="1.0" encoding="UTF-8"?>
<svg viewBox="0 0 16 16" xmlns="http://www.w3.org/2000/svg">
 <defs id="defs3051">
  <style id="current-color-scheme" type="text/css">.ColorScheme-Text {
        color:#dedede;
      }</style>
 </defs>
 <path class="ColorScheme-Text" d="m7 2v1h6v10h-6v1h6 1v-11-1h-7zm-5 4v1h5v-1h-5zm1 2v1h4v-1h-4zm2 2v1h2v-1h-2z" fill="currentColor"/>
</svg>

<svg xmlns="http://www.w3.org/2000/svg" viewBox="0 0 16 16">
  <defs id="defs3051">
    <style type="text/css" id="current-color-scheme">
      .ColorScheme-Text {
        color:#dedede;
      }
      </style>
  </defs>
 <path style="fill:currentColor;fill-opacity:1;stroke:none" 
     d="M 7 2 L 7 3 L 13 3 L 13 13 L 7 13 L 7 14 L 13 14 L 14 14 L 14 3 L 14 2 L 7 2 z M 2 6 L 2 7 L 7 7 L 7 6 L 2 6 z M 3 8 L 3 9 L 7 9 L 7 8 L 3 8 z M 5 10 L 5 11 L 7 11 L 7 10 L 5 10 z "
     class="ColorScheme-Text"
     />
</svg>
